src/actions/symbolic/document-send-symbolic.svg

<svg width="16" height="16" enable-background="new" version="1.1" xmlns="http://www.w3.org/2000/svg">
 <path d="m4 1c-1.108 0-2 0.892-2 2v10c0 1.108 0.892 2 2 2h8c1.108 0 2-0.892 2-2v-5.6797a4.3293 4.3293 0 0 1-1 0.2832v5.3965c0 0.554-0.446 1-1 1h-8c-0.554 0-1-0.446-1-1v-10c0-0.554 0.446-1 1-1h4.2109a4.3293 4.3293 0 0 1 0.47461-1h-4.6855z" fill="currentColor"/>
 <path d="m16 3.5a3.5 3.5 0 0 0-3.5-3.5 3.5 3.5 0 0 0-3.5 3.5 3.5 3.5 0 0 0 3.5 3.5 3.5 3.5 0 0 0 3.5-3.5zm-1.0859 0-2.5 2.5-0.70703-0.70703 1.293-1.293h-3v-1h3l-1.293-1.293 0.70703-0.70703 2.5 2.5z" fill="currentColor"/>
</svg>

<svg xmlns="http://www.w3.org/2000/svg" width="16" height="16"><path fill="currentColor" d="M4 1c-1.108 0-2 .892-2 2v10c0 1.108.892 2 2 2h8c1.108 0 2-.892 2-2V7.32a4.3 4.3 0 0 1-1 .283V13c0 .554-.446 1-1 1H4c-.554 0-1-.446-1-1V3c0-.554.446-1 1-1h4.21a4.3 4.3 0 0 1 .476-1z"/><path fill="currentColor" d="M16 3.5A3.5 3.5 0 0 0 12.5 0 3.5 3.5 0 0 0 9 3.5 3.5 3.5 0 0 0 12.5 7 3.5 3.5 0 0 0 16 3.5m-1.086 0-2.5 2.5-.707-.707L13 4h-3V3h3l-1.293-1.293.707-.707z"/></svg>
